fs/dismiss_12_filled.svg

<svg viewBox="0 0 12 12" fill="none" xmlns="http://www.w3.org/2000/svg" height="1em" width="1em">
  <path d="M1.89705 2.05379L1.96967 1.96967C2.23594 1.7034 2.6526 1.6792 2.94621 1.89705L3.03033 1.96967L6 4.939L8.96967 1.96967C9.26256 1.67678 9.73744 1.67678 10.0303 1.96967C10.3232 2.26256 10.3232 2.73744 10.0303 3.03033L7.061 6L10.0303 8.96967C10.2966 9.23594 10.3208 9.6526 10.1029 9.94621L10.0303 10.0303C9.76406 10.2966 9.3474 10.3208 9.05379 10.1029L8.96967 10.0303L6 7.061L3.03033 10.0303C2.73744 10.3232 2.26256 10.3232 1.96967 10.0303C1.67678 9.73744 1.67678 9.26256 1.96967 8.96967L4.939 6L1.96967 3.03033C1.7034 2.76406 1.6792 2.3474 1.89705 2.05379L1.96967 1.96967L1.89705 2.05379Z" fill="#212121"/>
</svg>

<svg viewBox="0 0 12 12" fill="none" xmlns="http://www.w3.org/2000/svg" height="1em" width="1em">
  <path d="m1.897 2.054.073-.084a.75.75 0 0 1 .976-.073l.084.073L6 4.939l2.97-2.97a.75.75 0 1 1 1.06 1.061L7.061 6l2.97 2.97a.75.75 0 0 1 .072.976l-.073.084a.75.75 0 0 1-.976.073l-.084-.073L6 7.061l-2.97 2.97A.75.75 0 1 1 1.97 8.97L4.939 6l-2.97-2.97a.75.75 0 0 1-.072-.976l.073-.084-.073.084Z" fill="#212121"/>
</svg>
